icons/ForwardBuffer-Large.svg

<svg width="24" height="24" viewBox="0 0 24 24" fill="none" xmlns="http://www.w3.org/2000/svg">
<path fill-rule="evenodd" clip-rule="evenodd" d="M17.4125 8.72266C17.4459 8.69126 17.49 8.67377 17.5358 8.67377C17.5817 8.67377 17.6258 8.69126 17.6592 8.72266L20.1458 11.2093L20.8925 11.936C20.9098 11.9522 20.9237 11.9718 20.9332 11.9936C20.9426 12.0154 20.9475 12.0389 20.9475 12.0627C20.9475 12.0864 20.9426 12.1099 20.9332 12.1317C20.9237 12.1535 20.9098 12.1731 20.8925 12.1893L17.6592 15.4227C17.6258 15.4541 17.5817 15.4716 17.5358 15.4716C17.49 15.4716 17.4459 15.4541 17.4125 15.4227L16.6658 14.676C16.6486 14.6604 16.6349 14.6413 16.6255 14.6201C16.6161 14.5989 16.6113 14.5759 16.6113 14.5527C16.6113 14.5294 16.6161 14.5065 16.6255 14.4852C16.6349 14.464 16.6486 14.445 16.6658 14.4293L19.0258 12.0627L16.6658 9.696C16.6372 9.66518 16.6214 9.62469 16.6214 9.58266C16.6214 9.54063 16.6372 9.50015 16.6658 9.46933L17.4125 8.72266ZM5.47249 8.54266C5.74139 8.50959 6.01426 8.53437 6.2728 8.61533C6.53135 8.6963 6.76961 8.83159 6.97161 9.01213C7.17362 9.19267 7.33471 9.4143 7.44409 9.66217C7.55347 9.91003 7.60861 10.1784 7.60582 10.4493C7.61683 10.7377 7.54796 11.0236 7.40679 11.2754C7.26562 11.5271 7.05765 11.735 6.80582 11.876C7.08229 11.9959 7.31646 12.1959 7.47808 12.4502C7.63971 12.7045 7.72136 13.0015 7.71249 13.3027C7.71284 13.5863 7.65318 13.8667 7.53745 14.1256C7.42171 14.3846 7.25251 14.6161 7.04096 14.8049C6.82941 14.9938 6.58029 15.1358 6.30997 15.2216C6.03965 15.3074 5.75424 15.335 5.47249 15.3027C5.17534 15.3281 4.8761 15.2938 4.59243 15.2017C4.30876 15.1096 4.04641 14.9617 3.82084 14.7666C3.59528 14.5714 3.41109 14.3331 3.27912 14.0657C3.14716 13.7982 3.0701 13.507 3.05249 13.2093H4.38582C4.38818 13.3445 4.41809 13.4778 4.47374 13.6009C4.52938 13.7241 4.60959 13.8347 4.70945 13.9258C4.80931 14.0169 4.92671 14.0867 5.05448 14.1309C5.18224 14.175 5.31768 14.1927 5.45249 14.1827C5.57306 14.1949 5.69484 14.1815 5.80987 14.1434C5.9249 14.1052 6.03056 14.0432 6.11995 13.9614C6.20933 13.8795 6.28041 13.7797 6.32853 13.6685C6.37664 13.5573 6.40071 13.4372 6.39916 13.316C6.39916 12.7627 5.97249 12.4293 5.36582 12.4293H4.94582V11.3427H5.31916C5.87249 11.3427 6.29916 11.0627 6.29916 10.5227C6.30228 10.4116 6.28203 10.301 6.2397 10.1983C6.19738 10.0955 6.13394 10.0028 6.05349 9.9261C5.97304 9.84942 5.87737 9.79049 5.77269 9.75315C5.668 9.71581 5.55664 9.70088 5.44582 9.70933C5.32291 9.70208 5.1998 9.71995 5.08402 9.76184C4.96824 9.80373 4.8622 9.86876 4.77237 9.95298C4.68254 10.0372 4.61081 10.1388 4.56154 10.2517C4.51228 10.3645 4.48652 10.4862 4.48582 10.6093H3.15249C3.19196 10.0298 3.45698 9.48886 3.8907 9.1025C4.32442 8.71614 4.89229 8.51516 5.47249 8.54266ZM10.9258 8.54933C12.4592 8.54933 13.5058 9.936 13.5058 11.9293C13.5058 13.9227 12.4592 15.3093 10.9458 15.3093C9.43249 15.3093 8.34582 13.9227 8.34582 11.9293C8.34582 9.936 9.39249 8.54933 10.9258 8.54933ZM10.9258 9.76266C10.0525 9.76266 9.67916 10.716 9.67916 11.9293C9.67916 13.1427 10.0392 14.096 10.9258 14.096C11.8125 14.096 12.1725 13.1427 12.1725 11.9293C12.1725 10.716 11.7992 9.76266 10.9258 9.76266Z" fill="black"/>
</svg>

<svg xmlns="http://www.w3.org/2000/svg" viewBox="0 0 24 24">
  <path d="M17.413 8.723a.18.18 0 01.246 0l2.487 2.486.746.727a.174.174 0 01.041.196.174.174 0 01-.04.057l-3.234 3.234a.18.18 0 01-.246 0l-.747-.747a.167.167 0 010-.247l2.36-2.366-2.36-2.367a.167.167 0 010-.227l.747-.746zm-11.94-.18a1.901 1.901 0 012.133 1.906 1.567 1.567 0 01-.8 1.427 1.507 1.507 0 01.906 1.427 2.01 2.01 0 01-2.24 2 2.234 2.234 0 01-2.42-2.094h1.334a.993.993 0 001.066.974.861.861 0 00.947-.867c0-.553-.427-.887-1.033-.887h-.42v-1.086h.373c.553 0 .98-.28.98-.82a.793.793 0 00-.853-.814.907.907 0 00-.96.9H3.152a2.22 2.22 0 012.32-2.066zm5.453.006c1.533 0 2.58 1.387 2.58 3.38 0 1.994-1.047 3.38-2.56 3.38-1.514 0-2.6-1.386-2.6-3.38 0-1.993 1.046-3.38 2.58-3.38zm0 1.214c-.873 0-1.247.953-1.247 2.166 0 1.214.36 2.167 1.247 2.167.886 0 1.246-.953 1.246-2.167 0-1.213-.373-2.166-1.246-2.166z"/>
</svg>
